material/.icons/material/dishwasher-alert.svg

<svg xmlns="http://www.w3.org/2000/svg" viewBox="0 0 24 24"><path d="M16 2H4c-1.1 0-2 .9-2 2v16a2 2 0 002 2h12c1.11 0 2-.89 2-2V4a2 2 0 00-2-2M8 4c.55 0 1 .45 1 1s-.45 1-1 1-1-.45-1-1 .45-1 1-1M5 4c.55 0 1 .45 1 1s-.45 1-1 1-1-.45-1-1 .45-1 1-1m11 16H4V8h12v12m-3.33-4.67c.02.7-.26 1.38-.76 1.88a2.7 2.7 0 01-3.82 0c-.5-.5-.78-1.18-.76-1.88.07-.71.3-1.39.67-2 .37-.83.81-1.6 1.33-2.33l.67-1c1.79 2.59 2.67 4.36 2.67 5.33M20 15h2v2h-2v-2m0-8h2v6h-2V7z"/></svg>

<?xml version="1.0" encoding="UTF-8"?><!DOCTYPE svg PUBLIC "-//W3C//DTD SVG 1.1//EN" "http://www.w3.org/Graphics/SVG/1.1/DTD/svg11.dtd"><svg xmlns="http://www.w3.org/2000/svg" xmlns:xlink="http://www.w3.org/1999/xlink" version="1.1" id="mdi-dishwasher-alert" width="24" height="24" viewBox="0 0 24 24"><path d="M16 2H4C2.9 2 2 2.9 2 4V20C2 21.11 2.9 22 4 22H16C17.11 22 18 21.11 18 20V4C18 2.9 17.11 2 16 2M8 4C8.55 4 9 4.45 9 5S8.55 6 8 6 7 5.55 7 5 7.45 4 8 4M5 4C5.55 4 6 4.45 6 5S5.55 6 5 6 4 5.55 4 5 4.45 4 5 4M16 20H4V8H16V20M12.67 15.33C12.69 16.03 12.41 16.71 11.91 17.21C10.86 18.26 9.15 18.27 8.09 17.21C7.59 16.71 7.31 16.03 7.33 15.33C7.4 14.62 7.63 13.94 8 13.33C8.37 12.5 8.81 11.73 9.33 11L10 10C11.79 12.59 12.67 14.36 12.67 15.33M20 15H22V17H20V15M20 7H22V13H20V7Z" /></svg>
